icons/core/star.svg

<svg width="32" height="32" viewBox="0 0 32 32" fill="none" xmlns="http://www.w3.org/2000/svg">
<path fill-rule="evenodd" clip-rule="evenodd" d="M14.8714 1.37887C15.3235 0.427837 16.677 0.427819 17.1292 1.37887L21.1117 9.7555L30.2803 10.9685C31.3212 11.1062 31.7388 12.3884 30.9785 13.1127L24.2685 19.5057L25.953 28.6361C26.1439 29.6706 25.0496 30.4638 24.1258 29.9606L16.0003 25.5343L7.87475 29.9606C6.951 30.4638 5.85669 29.6706 6.04754 28.6361L7.73203 19.5057L1.02201 13.1127C0.261759 12.3884 0.679325 11.1062 1.7203 10.9685L10.8889 9.7555L14.8714 1.37887ZM16.0003 3.66231L12.5201 10.9823C12.3383 11.3648 11.9751 11.6292 11.5552 11.6848L3.53619 12.7457L9.40546 18.3377C9.71102 18.6288 9.84904 19.0545 9.77247 19.4695L8.29983 27.4516L15.4023 23.5826C15.7751 23.3795 16.2255 23.3795 16.5982 23.5826L23.7007 27.4516L22.2281 19.4695C22.1515 19.0545 22.2895 18.6288 22.5951 18.3377L28.4644 12.7457L20.4454 11.6848C20.0255 11.6292 19.6623 11.3648 19.4804 10.9823L16.0003 3.66231Z" fill="black"/>
</svg>

<svg width="32" height="32" viewBox="0 0 32 32" xmlns="http://www.w3.org/2000/svg">
    <path fill-rule="evenodd" d="M14.871 1.379c.452-.951 1.806-.951 2.258 0l3.983 8.376 9.168 1.213c1.041.138 1.459 1.42.698 2.145l-6.71 6.393 1.685 9.13c.19 1.035-.903 1.828-1.827 1.325L16 25.534l-8.125 4.427c-.924.503-2.018-.29-1.827-1.325l1.684-9.13-6.71-6.393c-.76-.725-.343-2.007.698-2.144l9.169-1.213 3.982-8.377zm1.13 2.283l-3.48 7.32a1.25 1.25 0 01-.966.703l-8.019 1.06 5.87 5.593c.305.29.443.716.366 1.131L8.3 27.453l7.102-3.87a1.25 1.25 0 011.196 0l7.103 3.87-1.473-7.983a1.25 1.25 0 01.367-1.131l5.87-5.592-8.02-1.061a1.25 1.25 0 01-.965-.703L16 3.662z"/>
</svg>
